src/assets/svgs/house.svg

<svg width="23" height="19" viewBox="0 0 23 19" fill="none" xmlns="http://www.w3.org/2000/svg">
<path d="M11.5 0.25C11.7036 0.25 11.9054 0.289386 12.0938 0.366211C12.2822 0.443096 12.4541 0.55581 12.5986 0.698242L21.7656 9.73047L21.7666 9.73145C21.9169 9.8817 22.0017 10.0853 22.001 10.2979C22.0002 10.5103 21.9139 10.7131 21.7627 10.8623C21.6115 11.0113 21.4076 11.0947 21.1953 11.0957C20.983 11.0966 20.7785 11.0148 20.626 10.8672L20.624 10.8662L20.5127 10.7559V17.1484H21.9404C22.1538 17.1484 22.3597 17.2312 22.5117 17.3809C22.6639 17.5308 22.75 17.7356 22.75 17.9492C22.7499 18.1628 22.6638 18.3667 22.5117 18.5166C22.3597 18.6664 22.1539 18.75 21.9404 18.75H1.05957C0.846127 18.75 0.640338 18.6664 0.488281 18.5166C0.336214 18.3667 0.250055 18.1628 0.25 17.9492C0.25 17.7356 0.336098 17.5308 0.488281 17.3809C0.640319 17.2312 0.846206 17.1484 1.05957 17.1484H2.4873V10.7559L2.37598 10.8662L2.37402 10.8672C2.22152 11.0148 2.01695 11.0966 1.80469 11.0957C1.59245 11.0947 1.38845 11.0113 1.2373 10.8623C1.08606 10.7131 0.999815 10.5103 0.999023 10.2979C0.998274 10.0853 1.08315 9.8817 1.2334 9.73145L1.23438 9.73047L10.4014 0.698242C10.5459 0.55581 10.7178 0.443096 10.9062 0.366211C11.0946 0.289386 11.2964 0.25 11.5 0.25ZM4.10547 9.16211V17.1484H8.45312V12.0723C8.45312 11.8587 8.53928 11.6538 8.69141 11.5039C8.84346 11.3541 9.04926 11.2705 9.2627 11.2705H13.7373C13.9507 11.2705 14.1565 11.3541 14.3086 11.5039C14.4607 11.6538 14.5469 11.8587 14.5469 12.0723V17.1484H18.8945V9.16211L11.5 1.87598L4.10547 9.16211ZM10.0723 17.1484H12.9277V12.873H10.0723V17.1484Z" fill="#F6BB00" stroke="#F6BB00" stroke-width="0.5"/>
</svg>

<svg width="23" height="19" fill="none" xmlns="http://www.w3.org/2000/svg"><path d="M11.5.25a1.573 1.573 0 0 1 1.099.448l9.167 9.032v.001a.797.797 0 0 1-.57 1.365.814.814 0 0 1-.57-.229h-.002l-.111-.111v6.392h1.427c.214 0 .42.083.572.233a.798.798 0 0 1-.572 1.369H1.06a.815.815 0 0 1-.572-.233.797.797 0 0 1 0-1.136.814.814 0 0 1 .572-.233h1.427v-6.392l-.111.11-.002.001a.814.814 0 0 1-1.137-.005.797.797 0 0 1-.004-1.13l.001-.002L10.401.698A1.557 1.557 0 0 1 11.5.25ZM4.105 9.162v7.986h4.348v-5.076c0-.213.086-.418.238-.568a.815.815 0 0 1 .572-.233h4.474c.214 0 .42.083.572.233.152.15.238.355.238.568v5.076h4.348V9.162L11.5 1.876 4.105 9.162Zm5.967 7.986h2.856v-4.275h-2.856v4.275Z" fill="#F6BB00" stroke="#F6BB00" stroke-width=".5"/></svg>
